X: 66
T: Miss Tait
R: jig
Q: "Slow"
B: William Shepherd "1st Collection" 1793 p.6 #6
F: http://imslp.org/wiki/File:PMLP73094-Shepherd_Collections_HMT.pdf
C: William Shepherd (17??-1812)
Z: 2012 John Chambers <jc:trillian.mit.edu>
M: 6/8
L: 1/8
K: Bb
F |\
{Bc}d2B AcF | G<BA TB2c | {Bc}d2B cAF | F>AB Tc2d |\
{Bc}d2B AcF | G2A B2g | fdB ATcF | GBA {c}B2 :|
|: e |\
(d/e/f)f fdB | (e/f/g)g gec | (d/e/f)f fdB | Acf cAF |\
(d/e/f)f fdB | (e/f/g)g gab | fdB ATcF | GBA {c}B2 :|
